pro/src/icons/logo-cgr.svg

<svg width="230" height="200" viewBox="28 32 230 200" class="css-1cdqcpe" xmlns="http://www.w3.org/2000/svg">
  <defs>
    <polygon id="path-1" points="0 0 283.4649 0 283.4649 255.1168 0 255.1168"/>
    <polygon id="path-3" points="0 255.117 283.465 255.117 283.465 0 0 0"/>
  </defs>
  <g id="original-logo">
    <path d="M205.3927,79.4612 L205.3927,140.4582 C217.1717,125.7602 220.4527,110.7582 215.1427,95.8232 C212.4837,88.3432 208.2097,82.6592 205.3927,79.4612 Z M179.6307,178.7412 L179.6307,38.0222 L181.9187,38.8502 C212.2127,49.8082 231.3637,65.9732 238.8397,86.8962 C248.2227,113.1592 236.1377,138.0222 233.1567,143.5212 L248.6357,161.3122 L230.9197,176.4202 L205.3927,147.9522 L205.3927,166.5112 L204.6647,167.0202 C197.3597,172.1382 182.5577,177.6552 181.9307,177.8872 L179.6307,178.7412 Z" fill="#E0081B"/>
    <path d="M163.581,179.18 L161.359,178.476 C126.931,167.578 110.411,148.25 102.615,133.956 C94.131,118.399 93.854,105.567 93.847,105.028 C93.847,87.048 102.903,69.81 120.035,55.155 C132.875,44.172 145.518,38.564 146.049,38.331 L147.362,37.755 L159.294,55.674 L157.625,56.558 C157.302,56.729 125.251,73.99 121.619,100.409 C119.782,113.765 125.474,127.327 138.542,140.768 L138.542,100.49 L163.581,100.49 L163.581,179.18 Z" fill="#E0081B"/>
    <path d="M92.0261,177.3226 L90.5941,176.7496 C89.9831,176.5046 75.4671,170.6226 60.9841,158.8056 C41.6451,143.0286 31.9041,124.2036 32.8151,104.3636 C32.8521,103.8626 36.8091,59.2566 84.0961,39.9976 L85.3231,39.4976 L98.1011,56.7416 L96.3601,57.6756 C96.0001,57.8686 60.3401,77.3156 59.4121,105.4076 C58.8151,123.4556 72.4921,141.3406 100.0611,158.5636 L101.4021,159.4016 L92.0261,177.3226 Z" fill="#E0081B"/>
    <path d="M51.8916,203.954 C50.4826,202.066 48.2116,201.055 45.8666,201.055 C41.6586,201.055 38.8236,204.266 38.8236,208.368 C38.8236,212.538 41.6956,215.55 45.9646,215.55 C48.2116,215.55 50.4466,214.46 51.8916,212.748 L51.8916,220.984 C49.6026,221.681 47.9646,222.206 45.8246,222.206 C42.1456,222.206 38.6506,220.811 35.9046,218.32 C33.0086,215.694 31.6686,212.26 31.6686,208.343 C31.6686,204.726 33.0476,201.257 35.5536,198.672 C38.1556,196.007 41.8966,194.397 45.6176,194.397 C47.8276,194.397 49.8616,194.886 51.8916,195.717 L51.8916,203.954 Z" fill="#074f69"/>
    <polygon fill="#074f69" points="65.675 221.506 72.541 221.506 72.541 195.096 65.675 195.096"/>
    <polygon fill="#074f69" points="86.5715 195.0961 93.4345 195.0961 106.0165 211.2351 106.0765 211.2351 106.0765 195.0961 112.9435 195.0961 112.9435 221.5061 106.0765 221.5061 93.5025 205.3261 93.4345 205.3261 93.4345 221.5061 86.5715 221.5061"/>
    <polygon fill="#074f69" points="133.8435 200.9064 133.8435 205.3264 141.5885 205.3264 141.5885 211.1424 133.8435 211.1424 133.8435 215.6944 142.0095 215.6944 142.0095 221.5054 126.9815 221.5054 126.9815 195.0964 142.0095 195.0964 142.0095 200.9064"/>
    <polygon fill="#074f69" points="158.1058 195.0961 164.8678 195.0961 170.2158 209.2081 175.8928 195.0961 182.7348 195.0961 186.7208 221.5061 179.8588 221.5061 177.9328 206.3071 177.8668 206.3071 171.5268 221.5061 168.7938 221.5061 162.7248 206.3071 162.6558 206.3071 160.4568 221.5061 153.6158 221.5061"/>
    <path d="M208.7076,203.2607 L208.6376,203.2607 L205.7886,211.6617 L211.4986,211.6617 L208.7076,203.2607 Z M203.8996,216.9167 L202.0846,221.5057 L194.7976,221.5057 L204.9526,195.0957 L212.4526,195.0957 L222.3936,221.5057 L215.0846,221.5057 L213.3626,216.9167 L203.8996,216.9167 Z" fill="#074f69"/>
    <path d="M245.9801,201.8896 C244.7201,200.8386 243.1131,200.1366 241.4351,200.1366 C240.1701,200.1366 238.4921,200.8766 238.4921,202.3446 C238.4921,203.8886 240.3491,204.4766 241.5301,204.8626 L243.2841,205.3906 C246.9621,206.4796 249.7961,208.3426 249.7961,212.6116 C249.7961,215.2306 249.1701,217.9356 247.0801,219.7216 C244.9971,221.4746 242.2461,222.2066 239.5771,222.2066 C236.2571,222.2066 232.9871,221.0926 230.2941,219.2026 L233.2251,213.6566 C234.9481,215.1696 236.9771,216.3926 239.3311,216.3926 C240.9391,216.3926 242.6571,215.5826 242.6571,213.7246 C242.6571,211.8006 239.9611,211.1416 238.4921,210.7136 C234.1741,209.4876 231.3451,208.3686 231.3451,203.2606 C231.3451,197.8936 235.1681,194.3966 240.4491,194.3966 C243.1131,194.3966 246.3741,195.2326 248.7161,196.5666 L245.9801,201.8896 Z" fill="#074f69"/>
  </g>
</svg>

<?xml version="1.0" encoding="utf-8"?>
<!-- Generator: Adobe Illustrator 27.4.0, SVG Export Plug-In . SVG Version: 6.00 Build 0)  -->
<svg version="1.1" xmlns="http://www.w3.org/2000/svg" xmlns:xlink="http://www.w3.org/1999/xlink" x="0px" y="0px"
     viewBox="0 0 283.46 255.12" style="enable-background:new 0 0 283.46 255.12;" xml:space="preserve">
<style type="text/css">
	.st0{fill:#09202E;}
	.st1{fill:#FFFFFF;}
	.st2{fill:#E1061B;}
</style>
  <g id="Calque_1">
	<path class="st0" d="M227.8,0H55.67C25.05,0,0,25.14,0,55.85v143.41v55.85h227.8c30.62,0,55.67-25.13,55.67-55.85V55.85
		C283.46,25.13,258.42,0,227.8,0z"/>
</g>
  <g id="Calque_3">
	<g>
		<path class="st1" d="M51.89,203.95c-1.41-1.89-3.68-2.9-6.02-2.9c-4.21,0-7.04,3.21-7.04,7.31c0,4.17,2.87,7.18,7.14,7.18
			c2.25,0,4.48-1.09,5.93-2.8v8.24c-2.29,0.7-3.93,1.22-6.07,1.22c-3.68,0-7.17-1.4-9.92-3.89c-2.9-2.63-4.24-6.06-4.24-9.98
			c0-3.62,1.38-7.09,3.89-9.67c2.6-2.66,6.34-4.28,10.06-4.28c2.21,0,4.24,0.49,6.27,1.32V203.95z"/>
    <path class="st1" d="M72.54,221.51h-6.87V195.1h6.87V221.51z"/>
    <path class="st1" d="M86.57,195.1h6.86l12.58,16.14h0.06V195.1h6.87v26.41h-6.87L93.5,205.33h-0.07v16.18h-6.86V195.1z"/>
    <path class="st1" d="M133.84,200.91v4.42h7.75v5.82h-7.75v4.55h8.17v5.81h-15.03V195.1h15.03v5.81H133.84z"/>
    <path class="st1" d="M158.11,195.1h6.76l5.35,14.11l5.68-14.11h6.84l3.99,26.41h-6.86l-1.93-15.2h-0.07l-6.34,15.2h-2.73
			l-6.07-15.2h-0.07l-2.2,15.2h-6.84L158.11,195.1z"/>
    <path class="st1" d="M203.9,216.92l-1.82,4.59h-7.29l10.16-26.41h7.5l9.94,26.41h-7.31l-1.72-4.59H203.9z M208.71,203.26h-0.07
			l-2.85,8.4h5.71L208.71,203.26z"/>
    <path class="st1" d="M245.98,201.89c-1.26-1.05-2.87-1.75-4.54-1.75c-1.27,0-2.94,0.74-2.94,2.21c0,1.54,1.86,2.13,3.04,2.52
			l1.75,0.53c3.68,1.09,6.51,2.95,6.51,7.22c0,2.62-0.63,5.32-2.72,7.11c-2.08,1.75-4.83,2.48-7.5,2.48c-3.32,0-6.59-1.11-9.28-3
			l2.93-5.55c1.72,1.51,3.75,2.74,6.11,2.74c1.61,0,3.33-0.81,3.33-2.67c0-1.92-2.7-2.58-4.16-3.01c-4.32-1.23-7.15-2.35-7.15-7.45
			c0-5.37,3.82-8.86,9.1-8.86c2.66,0,5.92,0.84,8.27,2.17L245.98,201.89z"/>
	</g>
</g>
  <g id="Calque_2">
	<g>
		<path class="st2" d="M179.63,178.74V38.02l2.29,0.83c30.29,10.96,49.45,27.12,56.92,48.05c9.38,26.26-2.7,51.13-5.68,56.63
			l15.48,17.79l-17.72,15.11l-25.53-28.47v18.56l-0.73,0.51c-7.31,5.12-22.11,10.63-22.73,10.87L179.63,178.74z M205.39,79.46v61
			c11.78-14.7,15.06-29.7,9.75-44.64C212.48,88.34,208.21,82.66,205.39,79.46z"/>
	</g>
    <g>
		<path class="st2" d="M163.58,179.18l-2.22-0.7c-34.43-10.9-50.95-30.23-58.74-44.52c-8.48-15.56-8.76-28.39-8.77-28.93
			c0-17.98,9.06-35.22,26.19-49.87c12.84-10.98,25.48-16.59,26.01-16.82l1.31-0.58l11.93,17.92l-1.67,0.88
			c-0.32,0.17-32.37,17.43-36.01,43.85c-1.84,13.36,3.85,26.92,16.92,40.36v-40.28h25.04V179.18z"/>
	</g>
    <g>
		<path class="st2" d="M92.03,177.32l-1.43-0.57c-0.61-0.24-15.13-6.13-29.61-17.94c-19.34-15.78-29.08-34.6-28.17-54.44
			c0.04-0.5,3.99-45.11,51.28-64.37l1.23-0.5L98.1,56.74l-1.74,0.93C96,57.87,60.34,77.32,59.41,105.41
			c-0.6,18.05,13.08,35.93,40.65,53.16l1.34,0.84L92.03,177.32z"/>
	</g>
</g>
</svg>
